X: 1
T: Lynn's Waltz
C: Jonathan Jensen
O: Baltimore, Maryland
%R: waltz
Z: Collected and edited 2014 by John Chambers <jc:trillian.mit.edu>
B: GEMS The Best of the Country Dance and Song Society Diamond Jubilee Music, Dance and Song Contest 1993 p.73
M: 3/4
L: 1/8
K: A
% - - - - - - - - - - - - - - - - - - - - - - - - -
EF |\
"A"A2AFEF | "Bm7"A2c2B2 |\
"A"A2c2e2 | "D"f4fa |\
"A"fec2ce | "F#m"cAF2Ac |\
"Bm"BAFDFA | "E7"G2F2EF |
"A"A2AFEF | "Bm7"A2c2B2 |\
"A"A2c2e2 | "D"f4fa |\
"A"fec2ce | "F#m"cAF2Ac |\
"Bm7"B2A2"E7sus4"A2 | "A"A4 :|
|: cd |\
"A"e2ecec | "Bm7"a2afaf |\
"A"e2ecec | "D"(3BcBA2cd |\
"A"e2ecec | "D"a2afaf |\
"A"e2ec"B7"BA | "E"B4"C#7"cB |
"F#m"A2c2a2 | "C#m"fec2cB |\
"F#m"A2c2c'2 | "D"baf2fa |\
"A"fec2ce | "F#m"cAF2Ac |\
"Bm7"B2A2"E7sus4"A2 | "A"A4 :|
% - - - - - - - - - - - - - - - - - - - - - - - - -
